!!!OTL: Gebet.
!!!OTL-incipit:ALLGUETIGER VERNIMM DER UNSCHULD FLEHEN
!!!ARE: Europa, Mitteleuropa, Deutschland
!!!SCT: F0334
!!!TXL: @@DE
!!!YEM: Copyright 1995, estate of Helmut Schaffrath.
**kern	**text
*ICvox	*
*clefG2	*
*M4/4	*
*met(c)	*
*k[b-e-a-d-]	*
*A-:	*
!LO:TX:a:t=Mäſig langſam.	!
!LO:TX:a:t=Dreiſtimmig ohne, einſtimmig mit Begleitung.	!
!LO:TX:a:t=P:only sopran encoded:problem	!
{8cc/	1._All-
8ee-/	-gü-
8g	-ti-
=1	=1
4a-	-ger!
8r	.
8a-	vernimm
8b-/	.
8cc/	der
8dd-/	Unſchuld
8cc/	.
=2	=2
4cc/	Fle-
4b-/	-hen,
8r}	.
{8b-/	gib
8ee-/	Se-
8ff/	-gen
=3	=3
[2gg/	uns
8gg/]	.
8ee-/	von
8ff/	o-
8ddn/	-ben
=4	=4
2ee-/	her,
8r}	.
{8ee-/	und
8dd-X/	ei-
8b-/	-nen
=5	=5
4.a-	Blick,
8g	in
8a-	A-
8a-	-lem
8b-/	dich
8cc/	ʒu
=6	=6
8ee-/L	ſe-
8dd-J	.
4cc/	-hen,
8r}	.
{8cc/	Allgü-
8ee-/	.
8a-	-ti-
=7	=7
2ff/	-ger,
8r	.
8cc/	All-
8dd-/	-gü-
8g	-ti-
=8	=8
2a-	-ger!
8r}	.
==	==
!!!AGN: Jugend - Lied, religioes
!!!ONB: ESAC (Essen Associative Code) Database: FINK
!!!AMT: simple quadruple
!!!AIN: vox
!!!EED: Helmut Schaffrath
!!!EEV: 1.0
!!!GTL: Jugendlieder
!!!source: Musikalischer Hausschatz der Deutschen. Eine Sammlung von über 1000 Liedern und Gesängen mit Singstimmen und Klavierbegleitung. Leipzig, Litterarisches Verlags-Haus.
!!!page: 198
!!!URL-scan: https://www.digitale-sammlungen.de/en/view/bsb11144622?page=196,197
!!!ENC: Anna Maria Matuszewska
!!!EEV: 2024/07/30
*-	*-